packages/core/src/svgs/tokens/branded/DEP.svg

<svg width="24" height="24" viewBox="0 0 24 24" fill="none" xmlns="http://www.w3.org/2000/svg">
<path d="M8.1235 3.86169L6.77222 9.3867H17.2027L15.8103 3.86169H8.1235ZM22 13.8433L17.6271 9.98109L12.4111 18.5216L18.1568 20.1378L22 13.8433Z" fill="#EAB74C"/>
<path fill-rule="evenodd" clip-rule="evenodd" d="M16.2968 9.88074H16.9925L12.0404 17.855L7.03345 9.88074H14.4429L12.9006 12.7603L13.6785 14.0019L16.2968 9.88074ZM8.05268 10.3823H10.6871L13.3505 14.545L12.0404 16.7169L8.05268 10.3823ZM13.6169 10.3823H11.3562L12.5866 12.2301L13.6169 10.3823Z" fill="#EAB74C"/>
<path d="M2 13.8433L6.37386 9.98114L11.5894 18.5217L5.84368 20.1383L2 13.8433Z" fill="#EAB74C"/>
</svg>

<svg xmlns="http://www.w3.org/2000/svg" width="24" height="24" fill="none" viewBox="0 0 24 24">
    <path fill="#EAB74C" d="M8.124 3.862 6.772 9.387h10.43L15.81 3.862zM22 13.843l-4.373-3.862-5.216 8.54 5.746 1.617z"/>
    <path fill="#EAB74C" fill-rule="evenodd" d="M16.297 9.88h.695l-4.952 7.975-5.007-7.974h7.41L12.9 12.76l.777 1.24zm-8.244.502h2.634l2.664 4.163-1.31 2.172zm5.564 0h-2.26l1.23 1.848z" clip-rule="evenodd"/>
    <path fill="#EAB74C" d="m2 13.843 4.374-3.862 5.215 8.54-5.745 1.617z"/>
</svg>
